src/actions/16/color-gradient.svg

<svg version="1.1" viewBox="0 0 16 16" xmlns="http://www.w3.org/2000/svg" xmlns:cc="http://creativecommons.org/ns#" xmlns:dc="http://purl.org/dc/elements/1.1/" xmlns:rdf="http://www.w3.org/1999/02/22-rdf-syntax-ns#" xmlns:xlink="http://www.w3.org/1999/xlink">
 <metadata>
  <rdf:RDF>
   <cc:Work rdf:about="">
    <dc:format>image/svg+xml</dc:format>
    <dc:type rdf:resource="http://purl.org/dc/dcmitype/StillImage"/>
    <dc:title/>
   </cc:Work>
  </rdf:RDF>
 </metadata>
 <defs>
  <style type="text/css">.ColorScheme-Text {
        color:#2e3440;
      }</style>
  <linearGradient id="linearGradient4164" x1="3" x2="19" y1="1049.4" y2="1033.4" gradientTransform="matrix(.75 0 0 .75 .75 -774.02)" gradientUnits="userSpaceOnUse">
   <stop stop-color="#5e81ac" offset="0"/>
   <stop stop-color="#cae7fc" offset="1"/>
  </linearGradient>
 </defs>
 <path d="m11 3v1h-7v7h-1v1 1h1 1v-1h7v-7h1v-2h-2z" fill="url(#linearGradient4164)" stroke-linecap="round" stroke-linejoin="round" stroke-width="6"/>
 <path class="ColorScheme-Text" d="m10 2v3.281l-4.719 4.719h-3.281v4h4v-3.281l4.719-4.719h3.281v-4zm1 1h2v2h-2zm-8 8h2v2h-2z" fill="currentColor"/>
</svg>

<?xml version="1.0" encoding="UTF-8" standalone="no"?>
<svg
   xmlns:dc="http://purl.org/dc/elements/1.1/"
   xmlns:cc="http://creativecommons.org/ns#"
   xmlns:rdf="http://www.w3.org/1999/02/22-rdf-syntax-ns#"
   xmlns:svg="http://www.w3.org/2000/svg"
   xmlns="http://www.w3.org/2000/svg"
   xmlns:xlink="http://www.w3.org/1999/xlink"
   version="1.1"
   id="svg2"
   viewBox="0 0 16 16">
  <metadata
     id="metadata10">
    <rdf:RDF>
      <cc:Work
         rdf:about="">
        <dc:format>image/svg+xml</dc:format>
        <dc:type
           rdf:resource="http://purl.org/dc/dcmitype/StillImage" />
        <dc:title></dc:title>
      </cc:Work>
    </rdf:RDF>
  </metadata>
  <defs
     id="defs3051">
    <style
       id="current-color-scheme"
       type="text/css">
      .ColorScheme-Text {
        color:#2e3440;
      }
      </style>
    <linearGradient
       gradientTransform="matrix(0.75,0,0,0.75,0.75,-774.02)"
       gradientUnits="userSpaceOnUse"
       x2="19"
       y2="1033.36"
       x1="3"
       y1="1049.36"
       id="linearGradient4164"
       xlink:href="#linearGradient4172-7" />
    <linearGradient
       id="linearGradient4172-7">
      <stop
         id="stop4174-2"
         stop-color="#5e81ac" />
      <stop
         id="stop4176-0"
         stop-color="#cae7fc"
         offset="1" />
    </linearGradient>
  </defs>
  <path
     id="rect4156"
     d="M 11 3 L 11 4 L 4 4 L 4 11 L 3 11 L 3 12 L 3 13 L 4 13 L 5 13 L 5 12 L 12 12 L 12 5 L 13 5 L 13 3 L 11 3 z "
     style="fill:url(#linearGradient4164);stroke-width:6;stroke-linecap:round;stroke-linejoin:round" />
  <path
     id="path6"
     class="ColorScheme-Text"
     d="m10 2v3.281l-4.719 4.719h-3.281v4h4v-3.281l4.719-4.719h3.281v-4zm1 1h2v2h-2zm-8 8h2v2h-2z"
     style="fill:currentColor;fill-opacity:1;stroke:none" />
</svg>
